src/assets/wave.svg

<svg xmlns="http://www.w3.org/2000/svg" viewBox="0 0 1440 320"><path fill="#FEFF04" d="m0 288 40-32c40-32 120-96 200-112s160 16 240 26.7c80 10.3 160 .3 240-32 80-31.7 160-85.7 240-80 80 5.3 160 69.3 240 74.6 80 5.7 160-48.3 200-74.6l40-26.7v288H0Z"/></svg>

<?xml version="1.0" standalone="no"?><svg xmlns="http://www.w3.org/2000/svg" viewBox="0 0 1440 320"><path fill="#FEFF04" fill-opacity="1" d="M0,288L40,256C80,224,160,160,240,144C320,128,400,160,480,170.7C560,181,640,171,720,138.7C800,107,880,53,960,58.7C1040,64,1120,128,1200,133.3C1280,139,1360,85,1400,58.7L1440,32L1440,320L1400,320C1360,320,1280,320,1200,320C1120,320,1040,320,960,320C880,320,800,320,720,320C640,320,560,320,480,320C400,320,320,320,240,320C160,320,80,320,40,320L0,320Z"></path></svg>
